img/rectangle-9.svg

<svg fill="none" height="11" viewBox="0 0 68 11" width="68" xmlns="http://www.w3.org/2000/svg"><path d="m1.88065.57981c-.60759-.097214-1.157994.372128-1.157994.98744v7.81224c0 .61531.550404 1.08461 1.157994.98741l12.87135-2.05939c.0523-.00836.1051-.01256.158-.01256h50.1446c1.5583 0 2.8216-1.26326 2.8216-2.82158 0-1.55831-1.2633-2.82157-2.8216-2.82157l-50.1446-.00001c-.0529 0-.1057-.0042-.158-.01256z" fill="#e6e6e6"/></svg>

<svg width="68" height="11" viewBox="0 0 68 11" fill="none" xmlns="http://www.w3.org/2000/svg">
<path d="M1.88065 0.57981C1.27306 0.482596 0.722656 0.951938 0.722656 1.56725L0.722656 9.37949C0.722656 9.9948 1.27306 10.4641 1.88065 10.3669L14.752 8.30751C14.8043 8.29915 14.8571 8.29495 14.91 8.29495L65.0546 8.29495C66.6129 8.29495 67.8762 7.03169 67.8762 5.47337C67.8762 3.91506 66.6129 2.6518 65.0546 2.6518L14.91 2.65179C14.8571 2.65179 14.8043 2.64759 14.752 2.63923L1.88065 0.57981Z" fill="#E6E6E6"/>
</svg>
